static/logos/shortcut-glyph-color.svg

<svg width="50" height="50" viewBox="0 0 50 50" fill="none" xmlns="http://www.w3.org/2000/svg">
<g clip-path="url(#clip0_1_1090)">
<path d="M49.7122 12.4223C49.7122 5.56188 44.1508 1.14613e-05 37.2904 1.14613e-05H12.4469C10.8154 -0.00220831 9.19942 0.318029 7.69199 0.94233C6.18456 1.56664 4.81536 2.4827 3.66306 3.63788C-1.18759 8.48935 -1.18759 16.3573 3.66306 21.2063L8.08692 25.6304C3.37651 27.396 0.0234375 31.9393 0.0234375 37.2665C0.0234375 44.1268 5.58494 49.6887 12.4454 49.6887H37.2904C38.9219 49.6909 40.5378 49.3706 42.0452 48.7461C43.5524 48.1217 44.9216 47.2056 46.0738 46.0502C50.9249 41.1989 50.9249 33.331 46.0737 28.4819L41.6498 24.0579C46.3593 22.2926 49.7122 17.7489 49.7122 12.4223ZM7.07095 42.6433C6.0272 41.5991 5.31004 40.2736 5.00702 38.8287C4.70399 37.3837 4.82821 35.8819 5.36452 34.5064C5.90082 33.1309 6.82601 31.9412 8.0271 31.083C9.2282 30.2245 10.6532 29.7344 12.1282 29.6724L27.3252 44.8709H12.4449C11.4464 44.8733 10.4574 44.6775 9.5349 44.2952C8.61247 43.9127 7.77501 43.3514 7.07095 42.6433ZM42.6658 31.8915C44.0916 33.3173 44.8926 35.251 44.8926 37.2675C44.8926 39.2837 44.0916 41.2175 42.6658 42.6433C41.2402 44.069 39.3066 44.87 37.2904 44.87C35.2742 44.87 33.3406 44.069 31.9149 42.6433L7.07095 17.7982C5.65407 16.3705 4.86065 14.4395 4.86442 12.428C4.86824 10.4165 5.66891 8.48851 7.09115 7.06619C8.51339 5.64385 10.4413 4.84311 12.4526 4.83932C14.4639 4.83555 16.3948 5.62901 17.8223 7.04597L42.6658 31.8915ZM42.6658 17.7982C41.3211 19.1499 39.5144 19.9425 37.6091 20.0167L22.4116 4.81932H37.2919C38.7953 4.81974 40.2648 5.26592 41.5147 6.10146C42.7647 6.93702 43.7388 8.12442 44.3139 9.51355C44.8891 10.9026 45.0396 12.4312 44.7462 13.9058C44.4528 15.3805 43.7289 16.7349 42.6658 17.7982Z" fill="#58B1E4"/>
</g>
<defs>
<clipPath id="clip0_1_1090">
<rect width="50" height="50" fill="white"/>
</clipPath>
</defs>
</svg>

<svg xmlns="http://www.w3.org/2000/svg" width="64" height="64" fill="none" viewBox="0 0 50 50"><g clip-path="url(#a)"><path fill="#58B1E4" d="M49.712 12.422C49.712 5.562 44.151 0 37.29 0H12.447a12.383 12.383 0 0 0-8.784 3.638c-4.85 4.851-4.85 12.72 0 17.568l4.424 4.424C3.377 27.396.023 31.94.023 37.267c0 6.86 5.562 12.422 12.422 12.422H37.29a12.38 12.38 0 0 0 8.784-3.639c4.85-4.851 4.85-12.719 0-17.568l-4.424-4.424c4.71-1.765 8.062-6.31 8.062-11.636ZM7.071 42.643a7.603 7.603 0 0 1 5.057-12.97L27.325 44.87h-14.88a7.554 7.554 0 0 1-5.374-2.228Zm35.595-10.752a7.603 7.603 0 0 1-10.751 10.752L7.07 17.798A7.603 7.603 0 0 1 17.822 7.046l24.844 24.846Zm0-14.093a7.547 7.547 0 0 1-5.057 2.219L22.412 4.819h14.88a7.602 7.602 0 0 1 5.374 12.98Z"/></g><defs><clipPath id="a"><path fill="#fff" d="M0 0h50v50H0z"/></clipPath></defs></svg>
